assets/features/channel/southeast-asia1/bank-simpanan-nasional.svg

<svg width="80" height="80" viewBox="0 0 80 80" fill="none" xmlns="http://www.w3.org/2000/svg">
<rect width="80" height="80" rx="8" fill="#02A1B1"/>
<path d="M41.7795 47.7374C44.7765 44.5566 48.4223 43.1361 52.6243 42.9817C53.2731 42.9508 53.7057 42.8273 54.0146 42.117C54.509 40.9436 55.8993 40.4495 57.1352 40.7583C58.4328 41.098 59.2053 42.1788 59.1744 43.5684C59.1435 44.8346 58.2475 45.9154 56.9807 46.1933C55.7448 46.4712 54.4163 45.8227 53.9219 44.6493C53.6748 44.0625 53.4276 43.9081 52.8096 44.0317C51.203 44.2787 49.6273 44.6493 47.9898 45.4522C49.7818 45.7919 51.203 46.5021 52.408 47.6138C52.717 47.8917 52.9023 47.6447 53.1495 47.5829C54.6943 47.058 56.3319 47.8609 56.7644 49.374C57.2279 50.9181 56.3628 52.493 54.787 52.8944C53.7057 53.1724 52.7479 52.8944 52.0372 52.0607C51.2648 51.196 51.0794 50.146 51.5738 49.0961C51.821 48.602 51.6665 48.4167 51.2957 48.1697C49.7818 47.1815 48.1751 46.78 46.3831 47.0889C44.8692 47.3359 44.0968 48.4167 43.3553 49.5902C43.1081 49.9608 42.9227 50.3622 42.6137 50.8872C44.2204 50.3004 45.4871 50.7019 46.6612 51.5666C46.9084 51.7519 47.1247 51.5666 47.3718 51.5048C48.6695 51.196 49.9054 51.721 50.5542 52.8327C51.1412 53.8826 50.9867 55.2105 50.1216 56.1369C49.3183 57.0016 47.9589 57.2486 46.8466 56.6928C45.5798 56.0752 44.9619 54.5311 45.5489 53.1724C45.7961 52.6165 45.6107 52.4621 45.1473 52.3077C43.6333 51.8136 42.1194 52.9871 42.2739 54.562C42.521 57.3104 42.6446 60.0588 43.3553 62.7454C43.4479 63.0851 43.2626 63.2086 43.0154 63.3013C41.0998 64.2277 39.1842 64.2277 37.2377 63.3322C36.9596 63.2086 36.7743 63.0542 36.8978 62.6528C37.5776 60.0279 37.7321 57.3104 37.9483 54.5929C38.0719 53.0488 36.3726 51.8136 34.8896 52.3077C34.3952 52.4621 34.2407 52.6474 34.4879 53.2032C35.1367 54.7473 34.3025 56.4148 32.6959 56.9089C31.1511 57.3722 29.5753 56.4457 29.2046 54.8091C28.7411 52.8018 30.5949 51.0416 32.665 51.5666C33.0976 51.6901 33.4065 51.5974 33.7464 51.3813C34.8278 50.671 36.0018 50.3931 37.2686 50.9181C36.6816 48.1388 33.9936 46.5021 31.1511 47.1506C30.286 47.3668 29.4826 47.7374 28.7411 48.2006C28.3086 48.4476 28.2777 48.6638 28.463 49.127C29.0501 50.424 28.5557 51.8754 27.3508 52.6165C26.2076 53.2959 24.6628 53.0488 23.7976 52.0298C22.9325 51.0107 22.9325 49.4667 23.7976 48.4167C24.5392 47.5212 25.7441 47.1815 26.8873 47.6447C27.289 47.7991 27.5361 47.7373 27.8451 47.4594C28.9883 46.4403 30.3477 45.7919 31.9853 45.5139C30.7494 44.8346 29.5444 44.5566 28.3395 44.2787C28.1232 44.2169 27.9069 44.1861 27.6906 44.1552C26.9491 44.0317 26.3312 43.8464 25.9604 44.8963C25.5279 46.1007 24.1066 46.533 22.809 46.1933C21.5731 45.8536 20.7698 44.7419 20.8007 43.414C20.8316 42.1479 21.6967 41.1289 22.9325 40.82C24.1375 40.5112 25.497 41.0362 25.9604 42.1788C26.2694 42.9508 26.7328 43.0126 27.4126 43.0435C30.4713 43.167 33.2829 44.0008 35.8165 45.7301C36.6816 46.3168 37.4849 47.0271 38.3191 47.9844C37.4849 43.4449 35.2294 40.2951 31.0893 38.5966C30.1006 38.1952 29.081 37.9481 28.0305 37.732C27.567 37.6393 27.2581 37.7011 26.9491 38.1643C26.2076 39.276 24.8172 39.6157 23.6123 39.0907C22.4073 38.5658 21.7894 37.3614 22.0056 36.0026C22.191 34.8292 23.2415 33.8719 24.4465 33.8101C25.8677 33.7175 27.0109 34.4277 27.3508 35.7865C27.5052 36.4041 27.8451 36.4659 28.3086 36.5276C31.7072 37.0217 34.8587 38.1643 37.454 40.5421C37.8247 40.8818 38.1646 41.2833 38.5663 41.7156C38.7516 41.345 38.6281 41.0362 38.5354 40.7274C37.3922 36.4659 34.8278 33.4087 30.8421 31.5249C30.4404 31.3396 30.1624 31.2779 29.8225 31.7411C29.0501 32.8219 27.6288 33.1307 26.4548 32.5749C25.2498 32.019 24.6319 30.722 24.9408 29.3633C25.2189 28.1898 26.3312 27.2943 27.5979 27.2634C28.8647 27.2325 30.0697 28.0972 30.3168 29.425C30.4404 30.0735 30.7494 30.2279 31.2746 30.3823C33.6537 31.1852 35.6929 32.5131 37.5776 34.1807C37.6703 34.2733 37.7938 34.366 38.0101 34.5821C37.8865 32.9454 37.5158 31.494 36.9905 30.1044C36.4653 28.7148 35.7238 27.4487 34.7042 26.337C34.3952 25.9973 34.2098 25.8737 33.8082 26.2752C32.8813 27.2016 31.3364 27.2634 30.3168 26.5222C29.2046 25.7502 28.8338 24.3297 29.3899 23.0945C29.9152 21.921 31.182 21.2416 32.4178 21.4887C33.7773 21.7357 34.7042 22.8783 34.7042 24.2679C34.7042 24.5768 34.7042 24.7929 35.0131 25.0091C36.6816 26.1826 37.9483 27.6957 38.9061 29.4868C38.937 29.5486 38.9679 29.6103 39.0606 29.6412C39.4623 26.8928 39.3078 24.2371 38.1955 21.6739C38.0101 21.2416 37.763 21.4269 37.4849 21.4887C35.94 21.9519 34.457 21.149 33.9627 19.6049C33.5301 18.1844 34.3025 16.6404 35.7547 16.1772C36.8978 15.8375 37.9174 16.0845 38.7208 16.9801C39.5241 17.8756 39.5859 18.9564 39.1224 20.0064C38.9679 20.377 38.937 20.5931 39.1533 20.9328C39.555 21.5195 39.8021 22.1989 40.1111 22.9709C40.4819 22.1372 40.7599 21.3651 41.2234 20.6858C41.4706 20.3461 41.1307 20.1299 41.038 19.8829C40.4201 18.3697 41.1307 16.733 42.6446 16.1772C44.0968 15.6213 45.7652 16.4242 46.2595 17.8756C46.7539 19.3579 45.9506 20.9637 44.4675 21.4269C43.8805 21.6122 43.2935 21.6122 42.7373 21.396C42.3975 21.2725 42.2121 21.2725 42.0576 21.6431C41.0689 24.0827 40.7908 26.6458 41.1307 29.425C42.1812 27.5104 43.4788 26.0281 45.1473 24.8547C45.3635 24.7003 45.3326 24.515 45.3326 24.2679C45.3326 22.8474 46.2287 21.7048 47.5572 21.4269C48.7931 21.149 50.1216 21.8284 50.6778 23.0327C51.203 24.2371 50.8323 25.6576 49.8127 26.3987C48.7313 27.2016 47.2482 27.1399 46.2286 26.1517C45.8579 25.7811 45.7034 25.9046 45.4253 26.2134C43.5406 28.1898 42.6755 30.6294 42.2121 33.2234C42.1503 33.5939 41.9649 33.9645 42.1194 34.4277C43.4479 33.2543 44.8383 32.1734 46.3831 31.3705C47.2173 30.9382 48.0516 30.5367 48.9785 30.2897C49.4419 30.1662 49.6273 29.95 49.72 29.4868C49.9672 28.128 51.1103 27.2016 52.4389 27.2325C53.7674 27.2325 54.8797 28.1589 55.1578 29.5177C55.405 30.7529 54.787 31.9881 53.6748 32.5131C52.5007 33.0998 51.0794 32.8219 50.2761 31.7411C49.9363 31.247 49.6582 31.2779 49.1947 31.494C45.4253 33.2851 42.8918 36.1571 41.6868 40.1716C41.5632 40.6039 41.4397 41.0053 41.5941 41.4994C41.6559 41.4685 41.7486 41.4685 41.7795 41.4377C44.4366 38.4422 47.928 37.1144 51.7901 36.5276C52.2844 36.4659 52.5934 36.3732 52.7479 35.7865C53.0568 34.5204 54.1691 33.7792 55.5286 33.8101C56.7644 33.841 57.8149 34.7056 58.093 35.8791C58.3711 37.1761 57.8149 38.4422 56.7026 39.029C55.5595 39.6157 54.1073 39.4613 53.3658 38.3805C52.8405 37.6393 52.3153 37.7011 51.6356 37.8555C46.6303 38.8746 43.3553 41.7774 42.0576 46.78C41.8104 46.9962 41.7177 47.305 41.7795 47.7374Z" fill="#FEFEFE"/>
<path d="M37.6702 18.7403C37.6702 19.3271 37.2068 19.8212 36.6506 19.8829C36.0636 19.9138 35.4766 19.3888 35.4766 18.8021C35.4766 18.2462 35.9709 17.7213 36.527 17.6595C37.1141 17.6286 37.6393 18.1536 37.6702 18.7403Z" fill="#02A1B1"/>
<path d="M43.5096 19.8827C42.9535 19.8827 42.4282 19.3269 42.4282 18.8019C42.4282 18.2152 42.9844 17.6593 43.5714 17.6902C44.1584 17.6902 44.6528 18.2461 44.6528 18.8637C44.591 19.4195 44.0966 19.8827 43.5096 19.8827Z" fill="#02A1B1"/>
<path d="M23.5504 36.4044C23.5813 35.8176 24.1065 35.3544 24.6936 35.4162C25.2806 35.4471 25.7749 35.972 25.7441 36.5279C25.7132 37.1146 25.1261 37.6396 24.5391 37.5778C23.952 37.5161 23.5195 37.022 23.5504 36.4044Z" fill="#02A1B1"/>
<path d="M32.9428 24.1446C32.9428 24.7622 32.4794 25.2254 31.8923 25.2254C31.3053 25.2254 30.78 24.7622 30.78 24.1755C30.7491 23.5888 31.3053 23.002 31.8923 23.0329C32.4485 23.0638 32.9428 23.5579 32.9428 24.1446Z" fill="#02A1B1"/>
<path d="M54.1074 49.0653C54.6944 49.0653 55.1887 49.5594 55.1579 50.177C55.1579 50.7637 54.6635 51.2578 54.0765 51.2887C53.5512 51.2887 52.9642 50.7328 52.9642 50.2079C52.9333 49.5594 53.4585 49.0344 54.1074 49.0653Z" fill="#02A1B1"/>
<path d="M25.8368 51.2581C25.2807 51.2581 24.7554 50.764 24.7245 50.1773C24.6936 49.5596 25.188 49.0347 25.8059 49.0347C26.362 49.0347 26.8873 49.5288 26.9182 50.0846C26.98 50.6713 26.4238 51.2272 25.8368 51.2581Z" fill="#02A1B1"/>
<path d="M49.1637 54.1298C49.1637 54.6856 48.6385 55.2415 48.0823 55.2415C47.4953 55.2415 47.0009 54.7474 46.97 54.1607C46.9392 53.543 47.4644 53.0181 48.0823 53.0181C48.6694 53.0489 49.1328 53.543 49.1637 54.1298Z" fill="#02A1B1"/>
<path d="M52.3152 28.8691C52.9331 28.8691 53.3657 29.3324 53.3966 29.95C53.3966 30.5985 52.9022 31.0926 52.2843 31.0617C51.6972 31.0308 51.2029 30.5058 51.2338 29.95C51.2029 29.3632 51.6972 28.8691 52.3152 28.8691Z" fill="#02A1B1"/>
<path d="M32.9121 54.1605C32.9121 54.7473 32.4178 55.2722 31.8307 55.2722C31.2437 55.2722 30.7184 54.7164 30.7493 54.0988C30.7802 53.4812 31.2437 53.0488 31.8616 53.0488C32.4796 53.0488 32.943 53.5429 32.9121 54.1605Z" fill="#02A1B1"/>
<path d="M56.3317 36.4968C56.3317 37.0836 55.8374 37.5777 55.2503 37.5777C54.6633 37.5777 54.1689 37.1145 54.1689 36.5277C54.1689 35.8792 54.6633 35.416 55.2812 35.416C55.8992 35.416 56.3317 35.9101 56.3317 36.4968Z" fill="#02A1B1"/>
<path d="M49.1017 24.1137C49.1017 24.7313 48.6692 25.1945 48.0512 25.2254C47.4333 25.2562 46.939 24.7622 46.939 24.1137C46.939 23.5269 47.4333 23.0328 48.0203 23.002C48.6074 23.0328 49.1017 23.5269 49.1017 24.1137Z" fill="#02A1B1"/>
<path d="M57.5061 43.4763C57.5061 44.0322 56.9808 44.5572 56.3938 44.5572C55.8067 44.5572 55.2506 44.0013 55.2815 43.4146C55.3124 42.8278 55.8376 42.3646 56.4247 42.3955C57.0117 42.3955 57.5061 42.8896 57.5061 43.4763Z" fill="#02A1B1"/>
<path d="M27.5976 28.8691C28.2156 28.8691 28.6481 29.3324 28.6481 29.95C28.6481 30.5676 28.1229 31.0617 27.5049 31.0617C26.9179 31.0308 26.4544 30.5058 26.4853 29.9191C26.5162 29.3324 27.0106 28.8691 27.5976 28.8691Z" fill="#02A1B1"/>
<path d="M24.6009 43.4137C24.6009 44.0005 24.1374 44.4945 23.5504 44.5254C22.9325 44.5563 22.4072 44.0313 22.4072 43.4446C22.4072 42.8579 22.9016 42.3947 23.4886 42.3638C24.0756 42.3638 24.57 42.827 24.6009 43.4137Z" fill="#02A1B1"/>
</svg>

<svg xmlns="http://www.w3.org/2000/svg" width="80" height="80" fill="none" viewBox="0 0 80 80"><rect width="80" height="80" fill="#02a1b1" rx="8"/><path fill="#fefefe" d="M41.78 47.737c2.996-3.18 6.642-4.6 10.844-4.755.65-.031 1.082-.155 1.39-.865.495-1.173 1.885-1.667 3.121-1.359 1.298.34 2.07 1.42 2.04 2.81-.031 1.267-.927 2.347-2.194 2.625-1.236.278-2.565-.37-3.06-1.544-.246-.587-.493-.74-1.111-.617-1.607.247-3.183.617-4.82 1.42 1.792.34 3.213 1.05 4.418 2.162.309.278.494.03.742-.031 1.544-.525 3.182.278 3.614 1.791.464 1.544-.401 3.119-1.977 3.52-1.081.278-2.04 0-2.75-.833-.772-.865-.958-1.915-.463-2.965.247-.494.093-.68-.278-.926-1.514-.989-3.12-1.39-4.913-1.081-1.514.247-2.286 1.328-3.028 2.501-.247.37-.432.772-.741 1.297 1.606-.587 2.873-.185 4.047.68.247.185.464 0 .71-.062 1.298-.309 2.534.216 3.183 1.328.587 1.05.433 2.378-.432 3.304-.804.865-2.163 1.112-3.275.556a2.725 2.725 0 0 1-1.298-3.52c.247-.556.062-.71-.402-.865-1.514-.494-3.028.68-2.873 2.254.247 2.748.37 5.497 1.081 8.183.093.34-.092.464-.34.556-1.915.927-3.83.927-5.777.031-.278-.123-.464-.278-.34-.68.68-2.624.834-5.342 1.05-8.06.124-1.543-1.575-2.778-3.058-2.284-.495.154-.65.34-.402.895.649 1.544-.185 3.212-1.792 3.706-1.545.463-3.12-.463-3.491-2.1-.464-2.007 1.39-3.767 3.46-3.242.433.123.742.03 1.081-.186 1.082-.71 2.256-.988 3.523-.463-.587-2.78-3.275-4.416-6.118-3.767a8.4 8.4 0 0 0-2.41 1.05c-.432.247-.463.463-.278.926.587 1.297.093 2.748-1.112 3.49-1.143.679-2.688.432-3.553-.587-.865-1.02-.865-2.563 0-3.613a2.65 2.65 0 0 1 3.09-.772c.401.154.648.092.957-.186 1.143-1.019 2.503-1.667 4.14-1.945-1.236-.68-2.44-.957-3.645-1.235a5 5 0 0 0-.65-.124c-.74-.123-1.359-.309-1.73.741-.432 1.205-1.853 1.637-3.151 1.297-1.236-.34-2.04-1.451-2.008-2.779.03-1.266.896-2.285 2.132-2.594 1.204-.309 2.564.216 3.027 1.359.31.772.773.834 1.453.864 3.058.124 5.87.958 8.403 2.687.866.587 1.669 1.297 2.503 2.254-.834-4.54-3.09-7.689-7.23-9.387-.988-.402-2.008-.649-3.058-.865-.464-.093-.773-.03-1.082.432-.741 1.112-2.132 1.452-3.337.927s-1.823-1.73-1.606-3.088c.185-1.174 1.235-2.131 2.44-2.193 1.422-.093 2.565.618 2.905 1.976.154.618.494.68.958.742 3.398.494 6.55 1.636 9.145 4.014.37.34.71.741 1.112 1.174.186-.371.062-.68-.03-.989-1.144-4.261-3.708-7.318-7.694-9.202-.402-.185-.68-.247-1.02.216-.772 1.08-2.193 1.39-3.367.834-1.205-.556-1.823-1.853-1.514-3.212.278-1.173 1.39-2.069 2.657-2.1 1.267-.03 2.472.834 2.719 2.162.123.648.432.803.958.957 2.379.803 4.418 2.131 6.303 3.799.092.092.216.185.432.401-.123-1.637-.494-3.088-1.02-4.478-.525-1.39-1.266-2.655-2.286-3.767-.309-.34-.494-.463-.896-.062-.927.927-2.472.988-3.491.247-1.112-.772-1.483-2.192-.927-3.427.525-1.174 1.792-1.853 3.028-1.606 1.36.247 2.286 1.39 2.286 2.779 0 .309 0 .525.31.741 1.668 1.174 2.934 2.687 3.892 4.478.031.062.062.123.155.154.401-2.748.247-5.404-.865-7.967-.186-.432-.433-.247-.711-.185-1.545.463-3.028-.34-3.522-1.884a2.755 2.755 0 0 1 1.792-3.428c1.143-.34 2.162-.093 2.966.803.803.896.865 1.976.401 3.026-.154.371-.185.587.031.927.402.587.65 1.266.958 2.038.37-.834.649-1.606 1.112-2.285.248-.34-.092-.556-.185-.803-.618-1.513.093-3.15 1.607-3.706 1.452-.556 3.12.247 3.614 1.699.495 1.482-.308 3.088-1.791 3.55-.588.186-1.175.186-1.73-.03-.34-.123-.526-.123-.68.247-.99 2.44-1.267 5.003-.927 7.782 1.05-1.915 2.348-3.397 4.016-4.57.217-.155.186-.34.186-.587 0-1.42.896-2.563 2.224-2.841 1.236-.278 2.565.401 3.12 1.606.526 1.204.155 2.625-.864 3.366-1.082.803-2.565.74-3.584-.247-.371-.37-.526-.247-.804.061-1.884 1.977-2.75 4.416-3.213 7.01-.062.37-.247.742-.093 1.205 1.329-1.174 2.72-2.255 4.264-3.057.834-.433 1.669-.834 2.595-1.081.464-.124.65-.34.742-.803.247-1.359 1.39-2.285 2.719-2.254 1.328 0 2.44.926 2.719 2.285.247 1.235-.371 2.47-1.483 2.995-1.174.587-2.596.309-3.399-.772-.34-.494-.618-.463-1.081-.247-3.77 1.791-6.303 4.663-7.508 8.678-.124.432-.247.833-.093 1.327.062-.03.155-.03.185-.061 2.658-2.996 6.149-4.324 10.011-4.91.494-.062.803-.155.958-.742.309-1.266 1.421-2.007 2.78-1.976a2.71 2.71 0 0 1 2.565 2.07c.278 1.296-.278 2.562-1.39 3.149-1.144.587-2.596.432-3.337-.649-.526-.74-1.05-.679-1.73-.525-5.006 1.02-8.28 3.922-9.578 8.925-.248.216-.34.525-.279.957"/><path fill="#02a1b1" d="M37.67 18.74c0 .587-.463 1.081-1.02 1.143-.586.03-1.173-.494-1.173-1.08 0-.557.494-1.082 1.05-1.143.587-.031 1.112.494 1.143 1.08m5.84 1.143c-.556 0-1.082-.556-1.082-1.081 0-.587.556-1.143 1.143-1.112.587 0 1.082.556 1.082 1.174a1.166 1.166 0 0 1-1.143 1.019M23.55 36.404a1.05 1.05 0 0 1 1.144-.988c.587.031 1.08.556 1.05 1.112-.03.587-.618 1.112-1.205 1.05a1.1 1.1 0 0 1-.989-1.174m9.393-12.259c0 .617-.464 1.08-1.05 1.08-.588 0-1.113-.463-1.113-1.05-.03-.586.525-1.173 1.112-1.142a1.14 1.14 0 0 1 1.05 1.112m21.165 24.92c.587 0 1.082.494 1.05 1.112 0 .587-.493 1.08-1.08 1.112-.526 0-1.113-.556-1.113-1.081a1.086 1.086 0 0 1 1.143-1.143m-28.27 2.193c-.556 0-1.082-.494-1.113-1.08a1.09 1.09 0 0 1 1.082-1.143c.556 0 1.081.494 1.112 1.05.062.586-.494 1.142-1.081 1.173m23.327 2.872c0 .556-.526 1.111-1.082 1.111-.587 0-1.081-.494-1.112-1.08-.03-.618.494-1.143 1.112-1.143.587.03 1.05.525 1.082 1.112m3.151-25.26c.618 0 1.05.462 1.082 1.08 0 .649-.495 1.143-1.113 1.112-.587-.031-1.081-.556-1.05-1.112-.031-.587.463-1.08 1.081-1.08M32.912 54.16c0 .587-.494 1.112-1.081 1.112s-1.113-.556-1.082-1.173c.031-.618.495-1.05 1.113-1.05s1.081.494 1.05 1.111m23.42-17.663c0 .587-.495 1.08-1.082 1.08s-1.081-.462-1.081-1.05c0-.648.494-1.111 1.112-1.111s1.05.494 1.05 1.08m-7.229-12.382c0 .617-.433 1.08-1.05 1.111-.619.031-1.113-.463-1.113-1.111 0-.587.494-1.081 1.081-1.112.587.03 1.082.525 1.082 1.112m8.404 19.362c0 .556-.525 1.081-1.112 1.081s-1.143-.556-1.112-1.142c.03-.587.556-1.05 1.143-1.02.587 0 1.081.495 1.081 1.081M27.598 28.87c.618 0 1.05.462 1.05 1.08s-.525 1.112-1.143 1.112a1.096 1.096 0 0 1-1.02-1.143 1.117 1.117 0 0 1 1.113-1.05M24.6 43.414c0 .587-.463 1.08-1.05 1.111a1.11 1.11 0 0 1-1.143-1.08c0-.587.495-1.05 1.082-1.081.587 0 1.081.463 1.112 1.05"/></svg>
